X:1
T:Sechs Lieder für vierstimmigen Männerchor
T:Sommerlied
T:Felix Mendelssohn Bartholdy
T:Johann Georg Jacobi
T:Gute Nacht
T:Nr. 3 aus Sechs Lieder, Op. 50
T:CPDL - Creative Commons Attribution Non Commercial 3.0
T:CPDL - Creative Commons Attribution Non Commercial 3.0
T:CPDL - Creative Commons Attribution Non Commercial 3.0
T:CPDL - Creative Commons Attribution Non Commercial 3.0
T:CPDL - Creative Commons Attribution Non Commercial 3.0
T:CPDL - Creative Commons Attribution Non Commercial 3.0
T:CPDL - Creative Commons Attribution Non Commercial 3.0
T:CPDL - Creative Commons Attribution Non Commercial 3.0
C:Felix Mendelssohn Bartholdy
Z:Johann Georg Jacobi
Z:CPDL - Creative Commons Attribution Non Commercial 3.0
%%score [ ( 1 2 ) ( 3 4 ) ( 5 6 ) ( 7 8 ) ]
L:1/8
Q:1/4=100
M:6/8
K:G
V:1 treble-8 nm="Tenor\n1"
V:2 treble-8 
V:3 treble-8 nm="Tenor\n2"
V:4 treble-8 
V:5 bass nm="Bass\n1"
V:6 bass 
V:7 bass nm="Bass\n2"
V:8 bass 
V:1
"^Vivace e leggiero"!p!"^SOLO" d | d2 B G2 A | .B.B.c d2 d | d2 B A2 B | .c.c.d e3 | %5
w: Wie|Feld und Au so|blin- kend im Tau! Wie|per- len- schwer die|Pflan- zen um- her!|
 AB!<(!^c def!<)! | fe^c d2 z | z3 z2[Q:1/4=96]"^ritard." A | %8
w: Wie durch's Ge- büsch * die|Win- de so frisch,|die|
 fe^c !fermata!d2!f![Q:1/4=100]"^a tempo" d | A3- A2 B | c2 B d2 c | A3 z2 d | A3- A2 B | %13
w: Win- de so frisch! Wie|laut _ im|hel- len Son- nen-|strahl die|sü- * ßen|
 c2 d e2 c | A3 z2!f!"^TUTTI" d | g3- g2 f | e2 d e2 d | ^c2!p! g f2 e | d3- d2 e | d3- d2 e | %20
w: Vög- lein all- zu-|mal! Wie|laut _ im|hel- len Son- nen-|strahl die sü- ßen|Vög- * lein|all- * zu-|
 d3 z2!f! d | g3- g2 f | e2 d e2 d | ^c2 g f2 e | d6- | (d2 ^d) (e2 g) | (A2 B) (c2 A) | %27
w: mal! Wie|laut _ im|hel- len Son- nen-|strahl die sü- ßen|Vög-|* * lein _|all- * zu- *|
"^TUTTI" G3"^SOLO" z2 d | !>!g3- gdB | !>!g3- gdB | e3- e2 d | d3- !fermata!d2 || %32
w: mal! die|sü- * * ßen|Vög- * * lein|all- * zu-|mal! _|
"^SOLO"!p![Q:1/4=96]"^Un poco ritenuto" d | d2 B G2 A | .B.B.c d2 d | d2 B A2 B | .c.c.d e3 | %37
w: Ach|a- ber da, wo|Lieb- chen ich sah, im|Käm- mer- lein, so|nie- der und klein,|
 AB!<(!^c def!<)! | fe^c d2 z | z3 z2[Q:1/4=92]"^ritard." A | %40
w: so rings be- deckt, * der|Son- ne ver- steckt,|der|
 fe^c !fermata!d2[Q:1/4=100]"^Tempo I"!f! d | A3- A2 B | c2 B d2 c | A3 z2 d | A3- A2 B | %45
w: Son- ne ver- steckt, wo|blieb _ die|Er- de weit und|breit mit|al- * ler|
 c2 d e2 c | A3 z2"^TUTTI"!f! d | g3- g2 f | e2 d e2 d | ^c2!p! g f2 e | d3- d2 e | d3- d2 e | %52
w: ih- rer Herr- lich-|keit! Wo|blieb _ die|Er- de weit und|breit mit al- ler|ih- * rer|Herr- * lich-|
 d3 z2!f! d | g3- g2 f | e2 d e2 d | ^c2 g f2 e | d6- | (d2 ^d) (e2 g) | (A2 B) (c2 A) | %59
w: keit! Wo|blieb _ die|Er- de weit und|breit mit al- ler|ih-|* * rer _|Herr- * lich- *|
 d2 g f2 e | d6- | d2 ^d (e2 g) | (A2 B) (c2 A) |"^TUTTI" G3"^SOLO" z2!p! d | !>!g3- gdB | %65
w: keit, mit al- ler|ih-|* * rer _|Herr- * lich- *|keit! mit|al- * * ler|
 !>!g3- gdB |[Q:1/4=120]"^ritard." e3- e2 d | !fermata!d6 |] %68
w: ih- * * rer|Herr- * lich-|keit!|
V:2
 x | x6 | x6 | x6 | x6 | x6 | x6 | x6 | x6 | x6 | x6 | x6 | x6 | x6 | x6 | x6 | x6 | x6 | x6 | x6 | %20
w: ||||||||||||||||||||
 x6 | x6 | x6 | x6 | x6 | x6 | x6 | G6- | G6- | G6- | G6- | G3- G2 || x | x6 | x6 | x6 | x6 | x6 | %38
w: |||||||mal!|||||||||||
 x6 | x6 | x6 | x6 | x6 | x6 | x6 | x6 | x6 | x6 | x6 | x6 | x6 | x6 | x6 | x6 | x6 | x6 | x6 | %57
w: |||||||||||||||||||
 x6 | x6 | x6 | x6 | x6 | x6 | G6- | G6- | G6- | G6- | G6 |] %68
w: ||||||keit|_||||
V:3
!p! B | B2 G D2 F | .G.G.A B2 B | B2 G G2 G | .G.G.B c3 | AA!<(!A A3-!<)! | A3- A2 A | AGE F2 A | %8
w: ||||||* * die|Win- de so frisch, *|
 ABG !fermata!F2!f! F | F3- F2 ^G | A2 ^G B2 A | F3 z2 F | F3- F2 ^G | A2 B c2 A | F3 z2!f! d | %15
w: ||||||* Wie|
 d3- d2 d | c2 B c2 B | A3- A z!p! A | A3- A2 B | c2 d e2 c | (A3!<(! B2)!<)!!f! c | d3- d2 d | %22
w: laut _ im|hel- len Son- nen-|strahl _ die|sü- * ßen|Vög- lein all- zu-|mal! _ Wie|laut _ im|
 c2 B c2 B | A3- A z z | z2!f! A B2 c | (d2 B) (B2 A) | A3 A3 |"^TUTTI" G3 d3 | !>!e3 d3 | %29
w: hel- len Son- nen-|strahl _|die sü- ßen|Vög- * lein _|all- zu-|mal! die|sü- ßen|
 !>!e3 d3 | c3 c3 | B3- !fermata!B2 ||!p! B | B2 G D2 F | .G.G.A B2 B | B2 G G2 G | .G.G.B c3 | %37
w: Vög- lein|all- zu-|mal! _|Ach|a- ber da, wo|Lieb- chen ich sah, im|Käm- mer- lein, so|nie- der und klein,|
 AA!<(!A A3-!<)! | A3- A2 A | AGE F2 A | ABG !fermata!F2!f! F | F3- F2 ^G | A2 ^G B2 A | F3 z2 A | %44
w: so rings be- deckt,|_ _ der|Son- ne ver- steckt, der|Son- ne ver- steckt, wo|blieb _ die|Er- de weit und|breit mit|
 F3- F2 ^G | A2 B c2 A | F3 z2!f! d | d3- d2 d | c2 B c2 B | A3- A z!p! A | A3- A2 B | c2 d e2 c | %52
w: al- * ler|ih- rer Herr- lich-|keit! Wo|blieb _ die|Er- de weit und|breit _ mit|al- * ler|ih- rer Herr- lich-|
 (A3!<(! B2)!<)!!f! c | d3- d2 d | c2 B c2 B | A3- A z z | z2!f! A B2 c | (d2 B) (B2 A) | %58
w: keit! _ Wo|blieb _ die|Er- de weit und|breit _|mit al- ler|ih- * rer _|
 A3 (A2 d) | d3- d z z | z2 A d2 c | B3 (c2 _B) | A3 A3 |"^TUTTI" G3!p! d3 | !>!e3 d3 | !>!e3 d3 | %66
w: Herr- lich- *|keit, _|mit al- ler|ih- rer _|Herr- lich-|keit! mit|al- ler|ih- rer|
 c3 c3 | !fermata!B6 |] %68
w: Herr- lich-|keit!|
V:4
 x | x6 | x6 | x6 | x6 | x6 | x6 | x6 | x6 | x6 | x6 | x6 | x6 | x6 | x6 | x6 | x6 | x6 | x6 | x6 | %20
w: ||||||||||||||||||||
 x6 | x6 | x6 | x6 | x6 | x6 | x6 | G6- | G6- | G6- | G6- | G3- G2 || x | x6 | x6 | x6 | x6 | x6 | %38
w: |||||||mal!|||||||||||
 x6 | x6 | x6 | x6 | x6 | x6 | x6 | x6 | x6 | x6 | x6 | x6 | x6 | x6 | x6 | x6 | x6 | x6 | x6 | %57
w: |||||||||||||||||||
 x6 | x6 | x6 | x6 | x6 | x6 | G6- | G6- | G6- | G6- | G6 |] %68
w: ||||||keit|_||||
V:5
!p! G, | G,2 D, B,,2 D, | .G,.G,.G, G,2 G, | G,2 D, C,2 D, | .E,.E,.G, C3 | G,G,!<(!G, F,G,A,!<)! | %6
w: Wie|Feld und Au so|blin- kend im Tau! Wie|per- len- schwer die|Pflan- zen um- her!|Wie durch's Ge- büsch _ die|
 A,G,E, F,2 z | z3 z2 A, | A,G,E, !fermata!D,2!f! D, | D,3- D,2 D, | D,3 D,3 | D,2 F, A,2 F, | %12
w: Win- de so frisch,|die|Win- de so frisch! Wie|laut _ im|hel- len|Son- nen- strahl die|
 D,3- D,2 D, | E,3 E,3 | D,2 F, A,2!f! C | B,3- B,2 B, | G,2 G, G,2 G, | G,3- G, z!p! G, | %18
w: sü- * ßen|Vög- lein|all- zu- mal! *||||
 F,3- F,2 G, | A,2 B, C2 A, | (F,3!<(! G,2)!<)!!f! A, | B,3- B,2 B, | G,2 G, G,2 G, | G,3- G, z z | %24
w: ||mal! _ Wie|laut _ im|hel- len Son- nen-|strahl _|
 z2!f! F, G,2 A, | (B,2 A,) G,3 | G,3 F,3 |"^TUTTI" G,3 B,3 | !>!C3 B,3 | !>!C3 B,3 | G,3 A,3 | %31
w: die sü- ßen|Vög- * lein|all zu-|* die|sü- ßen|Vög- lein|all- zu-|
 B,3- !fermata!B,2 ||!p! G, | G,2 D, B,,2 D, | .G,.G,.G, G,2 G, | G,2 D, C,2 D, | .E,.E,.G, C3 | %37
w: mal! _|_|||||
 G,G,!<(!G, F,G,A,!<)! | A,G,E, F,2 z | z3 z2 A, | A,G,E, !fermata!D,2!f! D, | D,3- D,2 D, | %42
w: so rings be- deckt, * der|Son- ne ver- steckt,|der|Son- ne ver- steckt, wo|blieb _ die|
 D,3 D,3 | D,2 F, A,2 F, | D,3- D,2 D, | E,3 E,3 | D,2 F, A,2!f! C | B,3- B,2 B, | G,2 G, G,2 G, | %49
w: Er- de|weit und breit mit|al- * ler|ih- rer|Herr- lich- keit! Wo|blieb _ die||
 G,3- G, z!p! G, | F,3- F,2 G, | A,2 B, C2 A, | (F,3!<(! G,2)!<)!!f! A, | B,3- B,2 B, | %54
w: |||||
 G,2 G, G,2 G, | G,3- G, z z | z2!f! F, G,2 A, | (B,2 A,) G,3 | G,3 F,3 | G,3- G, z z | %60
w: Er- de weit und|breit _|mit al- ler|ih- * rer|Herr- lich-|keit, _|
 z2 F, G,2 F, | (G,2 =F,) E,3 | G,3 ^F,3 |"^TUTTI" G,3!p! B,3 | !>!C3 B,3 | !>!C3 B,3 | G,3 A,3 | %67
w: mit al- ler|ih- * rer|Herr- lich-|keit! mit|al- ler|ih- rer|Herr- lich-|
 !fermata!B,6 |] %68
w: keit!|
V:6
 x | x6 | x6 | x6 | x6 | x6 | x6 | x6 | x6 | x6 | x6 | x6 | x6 | x6 | x6 | x6 | x6 | x6 | x6 | x6 | %20
w: ||||||||||||||||||||
 x6 | x6 | x6 | x6 | x6 | x6 | x6 | G,6- | G,6- | G,6- | G,6- | G,3- G,2 || x | x6 | x6 | x6 | x6 | %37
w: |||||||mal!||||||||||
 x6 | x6 | x6 | x6 | x6 | x6 | x6 | x6 | x6 | x6 | x6 | x6 | x6 | x6 | x6 | x6 | x6 | x6 | x6 | %56
w: |||||||||||||||||||
 x6 | x6 | x6 | x6 | x6 | x6 | x6 | G,6- | G,6- | G,6- | G,6- | G,6 |] %68
w: |||||||keit|_||||
V:7
 z | z6 | z6 | z6 | z6 |!p! A,,A,,!<(!A,, A,,3-!<)! | A,,3- A,,2 F, | F,E,^C, D,2 A,, | %8
w: ||||||* * die|Win- de so frisch, *|
 A,,A,,A,, !fermata!D,2!f! D, | D,3- D,2 D, | D,2 D, D,2 D, | D,3 z2 D, | D,3- D,2 D, | %13
w: |* * im|hel- len Son- nen-|strahl *||
 C,2 B,, A,,2 C, | D,3 z2!f! D, | [G,,G,]3- [G,,G,]2 [G,,G,] | [G,,G,]2 G,, G,,2 G,, | %17
w: Vög- lein all- zu-|mal! Wie|laut _ im|hel- len Son- nen-|
 A,,3- A,, z z | z6 | z3 z2!p! A,, | (D,2 C,)!<(! (B,,2!<)!!f! A,,) | G,,3- G,,2 G,, | %22
w: strahl _||Wie|laut, _ wie _|laut _ _|
 G,,2 G,, G,,2 G,, | A,,3- A,, z z | z2!f! =C B,2 A, | (G,2 F,) (E,2 ^C,) | D,3 D,3 | %27
w: _ _ _ _||||all- zu-|
"^TUTTI" G,,3 G,3 | !>!G,3- G,2 G, | !>!G,3- G,2 G, | G,3 F,3 | G,3- !fermata!G,2 || z | z6 | z6 | %35
w: * die|sü- * ßen|Vög- * lein|all- zu-|mal! _||||
 z6 | z6 |!p! A,,A,,!<(!A,, A,,3-!<)! | A,,3- A,,2 F, | F,E,^C, D,2 A,, | %40
w: ||so rings be- deckt,|_ _ der|Son- ne ver- steckt, der|
 A,,A,,A,, !fermata!D,2!f! D, | D,3- D,2 D, | D,2 D, D,2 D, | D,3 z2 D, | D,3- D,2 D, | %45
w: Son- ne ver- steckt, wo|blieb _ die|Er- de weit und|breit mit|al- * ler|
 C,2 B,, A,,2 C, | D,3 z2!f! D, | [G,,G,]3- [G,,G,]2 [G,,G,] | [G,,G,]2 G,, G,,2 G,, | %49
w: ih- rer Herr- lich-|keit! *||Er- de weit und|
 A,,3- A,, z z | z6 | z3 z2!p! A,, | (D,2 C,)!<(! (B,,2!<)!!f! A,,) | G,,3- G,,2 G,, | %54
w: breit _||Wo|blieb, _ wo _|blieb _ die|
 G,,2 G,, G,,2 G,, | A,,3- A,, z z | z2!f! C B,2 A, | (G,2 F,) (E,2 ^C,) | D,3 (D,2 =C,) | %59
w: |||||
 B,,3- B,, z z | z2 C, B,,2 A,, | G,,3 (C,2 ^C,) | D,3 D,3 |"^TUTTI" G,,3!p! G,3 | !>!G,3- G,2 G, | %65
w: |mit al- ler|ih- rer _|Herr- lich-|* mit|al- * ler|
 !>!G,3- G,2 G, | G,3 F,3 | !fermata!G,6 |] %68
w: ih- * rer|Herr- lich-|keit!|
V:8
 x | x6 | x6 | x6 | x6 | x6 | x6 | x6 | x6 | x6 | x6 | x6 | x6 | x6 | x6 | x6 | x6 | x6 | x6 | x6 | %20
w: ||||||||||||||||||||
 x6 | x6 | x6 | x6 | x6 | x6 | x6 | G,,6- | G,,6- | G,,6- | G,,6- | G,,3- G,,2 || x | x6 | x6 | %35
w: |||||||mal!||||||||
 x6 | x6 | x6 | x6 | x6 | x6 | x6 | x6 | x6 | x6 | x6 | x6 | x6 | x6 | x6 | x6 | x6 | x6 | x6 | %54
w: |||||||||||||||||||
 x6 | x6 | x6 | x6 | x6 | x6 | x6 | x6 | x6 | G,,6- | G,,6- | G,,6- | G,,6- | G,,6 |] %68
w: |||||||||keit|_||||

